bernoullicharts/2014_lin_x_8_0_bits.svg

<?xml version="1.0" encoding="utf-8" standalone="no"?>
<!DOCTYPE svg PUBLIC "-//W3C//DTD SVG 1.1//EN"
  "http://www.w3.org/Graphics/SVG/1.1/DTD/svg11.dtd">
<!-- Created with matplotlib (https://matplotlib.org/) -->
<svg height="345.6pt" version="1.1" viewBox="0 0 460.8 345.6" width="460.8pt" xmlns="http://www.w3.org/2000/svg" xmlns:xlink="http://www.w3.org/1999/xlink">
 <defs>
  <style type="text/css">
*{stroke-linecap:butt;stroke-linejoin:round;}
  </style>
 </defs>
 <g id="figure_1">
  <g id="patch_1">
   <path d="M 0 345.6 
L 460.8 345.6 
L 460.8 0 
L 0 0 
z
" style="fill:#ffffff;"/>
  </g>
  <g id="axes_1">
   <g id="patch_2">
    <path d="M 57.6 307.584 
L 414.72 307.584 
L 414.72 41.472 
L 57.6 41.472 
z
" style="fill:#ffffff;"/>
   </g>
   <g id="matplotlib.axis_1">
    <g id="xtick_1">
     <g id="line2d_1">
      <defs>
       <path d="M 0 0 
L 0 3.5 
" id="mb08e518b82" style="stroke:#000000;stroke-width:0.8;"/>
      </defs>
      <g>
       <use style="stroke:#000000;stroke-width:0.8;" x="73.373481" xlink:href="#mb08e518b82" y="307.584"/>
      </g>
     </g>
     <g id="text_1">
      <text style="font-family:DejaVu Sans;font-size:10px;font-style:normal;font-weight:normal;text-anchor:middle;" transform="rotate(-0, 73.373481, 322.182437)" x="73.373481" y="322.182437">0.00</text>
     </g>
    </g>
    <g id="xtick_2">
     <g id="line2d_2">
      <g>
       <use style="stroke:#000000;stroke-width:0.8;" x="119.298095" xlink:href="#mb08e518b82" y="307.584"/>
      </g>
     </g>
     <g id="text_2">
      <text style="font-family:DejaVu Sans;font-size:10px;font-style:normal;font-weight:normal;text-anchor:middle;" transform="rotate(-0, 119.298095, 322.182437)" x="119.298095" y="322.182437">0.01</text>
     </g>
    </g>
    <g id="xtick_3">
     <g id="line2d_3">
      <g>
       <use style="stroke:#000000;stroke-width:0.8;" x="165.222708" xlink:href="#mb08e518b82" y="307.584"/>
      </g>
     </g>
     <g id="text_3">
      <text style="font-family:DejaVu Sans;font-size:10px;font-style:normal;font-weight:normal;text-anchor:middle;" transform="rotate(-0, 165.222708, 322.182437)" x="165.222708" y="322.182437">0.02</text>
     </g>
    </g>
    <g id="xtick_4">
     <g id="line2d_4">
      <g>
       <use style="stroke:#000000;stroke-width:0.8;" x="211.147322" xlink:href="#mb08e518b82" y="307.584"/>
      </g>
     </g>
     <g id="text_4">
      <text style="font-family:DejaVu Sans;font-size:10px;font-style:normal;font-weight:normal;text-anchor:middle;" transform="rotate(-0, 211.147322, 322.182437)" x="211.147322" y="322.182437">0.03</text>
     </g>
    </g>
    <g id="xtick_5">
     <g id="line2d_5">
      <g>
       <use style="stroke:#000000;stroke-width:0.8;" x="257.071935" xlink:href="#mb08e518b82" y="307.584"/>
      </g>
     </g>
     <g id="text_5">
      <text style="font-family:DejaVu Sans;font-size:10px;font-style:normal;font-weight:normal;text-anchor:middle;" transform="rotate(-0, 257.071935, 322.182437)" x="257.071935" y="322.182437">0.04</text>
     </g>
    </g>
    <g id="xtick_6">
     <g id="line2d_6">
      <g>
       <use style="stroke:#000000;stroke-width:0.8;" x="302.996549" xlink:href="#mb08e518b82" y="307.584"/>
      </g>
     </g>
     <g id="text_6">
      <text style="font-family:DejaVu Sans;font-size:10px;font-style:normal;font-weight:normal;text-anchor:middle;" transform="rotate(-0, 302.996549, 322.182437)" x="302.996549" y="322.182437">0.05</text>
     </g>
    </g>
    <g id="xtick_7">
     <g id="line2d_7">
      <g>
       <use style="stroke:#000000;stroke-width:0.8;" x="348.921162" xlink:href="#mb08e518b82" y="307.584"/>
      </g>
     </g>
     <g id="text_7">
      <text style="font-family:DejaVu Sans;font-size:10px;font-style:normal;font-weight:normal;text-anchor:middle;" transform="rotate(-0, 348.921162, 322.182437)" x="348.921162" y="322.182437">0.06</text>
     </g>
    </g>
    <g id="xtick_8">
     <g id="line2d_8">
      <g>
       <use style="stroke:#000000;stroke-width:0.8;" x="394.845776" xlink:href="#mb08e518b82" y="307.584"/>
      </g>
     </g>
     <g id="text_8">
      <text style="font-family:DejaVu Sans;font-size:10px;font-style:normal;font-weight:normal;text-anchor:middle;" transform="rotate(-0, 394.845776, 322.182437)" x="394.845776" y="322.182437">0.07</text>
     </g>
    </g>
    <g id="text_9">
     <text style="font-family:DejaVu Sans;font-size:10px;font-style:normal;font-weight:normal;text-anchor:middle;" transform="rotate(-0, 236.16, 335.860562)" x="236.16" y="335.860562">Probability</text>
    </g>
   </g>
   <g id="matplotlib.axis_2">
    <g id="ytick_1">
     <g id="line2d_9">
      <defs>
       <path d="M 0 0 
L -3.5 0 
" id="mfb254343be" style="stroke:#000000;stroke-width:0.8;"/>
      </defs>
      <g>
       <use style="stroke:#000000;stroke-width:0.8;" x="57.6" xlink:href="#mfb254343be" y="273.422639"/>
      </g>
     </g>
     <g id="text_10">
      <text style="font-family:DejaVu Sans;font-size:10px;font-style:normal;font-weight:normal;text-anchor:end;" transform="rotate(-0, 50.6, 277.221858)" x="50.6" y="277.221858">100</text>
     </g>
    </g>
    <g id="ytick_2">
     <g id="line2d_10">
      <g>
       <use style="stroke:#000000;stroke-width:0.8;" x="57.6" xlink:href="#mfb254343be" y="239.131968"/>
      </g>
     </g>
     <g id="text_11">
      <text style="font-family:DejaVu Sans;font-size:10px;font-style:normal;font-weight:normal;text-anchor:end;" transform="rotate(-0, 50.6, 242.931186)" x="50.6" y="242.931186">200</text>
     </g>
    </g>
    <g id="ytick_3">
     <g id="line2d_11">
      <g>
       <use style="stroke:#000000;stroke-width:0.8;" x="57.6" xlink:href="#mfb254343be" y="204.841296"/>
      </g>
     </g>
     <g id="text_12">
      <text style="font-family:DejaVu Sans;font-size:10px;font-style:normal;font-weight:normal;text-anchor:end;" transform="rotate(-0, 50.6, 208.640515)" x="50.6" y="208.640515">300</text>
     </g>
    </g>
    <g id="ytick_4">
     <g id="line2d_12">
      <g>
       <use style="stroke:#000000;stroke-width:0.8;" x="57.6" xlink:href="#mfb254343be" y="170.550625"/>
      </g>
     </g>
     <g id="text_13">
      <text style="font-family:DejaVu Sans;font-size:10px;font-style:normal;font-weight:normal;text-anchor:end;" transform="rotate(-0, 50.6, 174.349844)" x="50.6" y="174.349844">400</text>
     </g>
    </g>
    <g id="ytick_5">
     <g id="line2d_13">
      <g>
       <use style="stroke:#000000;stroke-width:0.8;" x="57.6" xlink:href="#mfb254343be" y="136.259954"/>
      </g>
     </g>
     <g id="text_14">
      <text style="font-family:DejaVu Sans;font-size:10px;font-style:normal;font-weight:normal;text-anchor:end;" transform="rotate(-0, 50.6, 140.059173)" x="50.6" y="140.059173">500</text>
     </g>
    </g>
    <g id="ytick_6">
     <g id="line2d_14">
      <g>
       <use style="stroke:#000000;stroke-width:0.8;" x="57.6" xlink:href="#mfb254343be" y="101.969282"/>
      </g>
     </g>
     <g id="text_15">
      <text style="font-family:DejaVu Sans;font-size:10px;font-style:normal;font-weight:normal;text-anchor:end;" transform="rotate(-0, 50.6, 105.768501)" x="50.6" y="105.768501">600</text>
     </g>
    </g>
    <g id="ytick_7">
     <g id="line2d_15">
      <g>
       <use style="stroke:#000000;stroke-width:0.8;" x="57.6" xlink:href="#mfb254343be" y="67.678611"/>
      </g>
     </g>
     <g id="text_16">
      <text style="font-family:DejaVu Sans;font-size:10px;font-style:normal;font-weight:normal;text-anchor:end;" transform="rotate(-0, 50.6, 71.47783)" x="50.6" y="71.47783">700</text>
     </g>
    </g>
    <g id="text_17">
     <text style="font-family:DejaVu Sans;font-size:10px;font-style:normal;font-weight:normal;text-anchor:middle;" transform="rotate(-90, 25.432812, 174.528)" x="25.432812" y="174.528">Average Bits Consumed Per Call</text>
    </g>
   </g>
   <g id="line2d_16">
    <path clip-path="url(#p5ed06da758)" d="M 73.832727 242.550062 
L 120.211948 237.254896 
L 166.591169 236.85301 
L 212.97039 225.135201 
L 259.34961 237.333765 
L 305.728831 223.27459 
" style="fill:none;stroke:#1f77b4;stroke-linecap:square;stroke-width:1.5;"/>
   </g>
   <g id="line2d_17">
    <path clip-path="url(#p5ed06da758)" d="M 73.832727 237.859784 
L 120.211948 235.704958 
L 166.591169 225.546004 
L 212.97039 226.417672 
L 259.34961 217.982853 
L 305.728831 202.990286 
L 352.108052 198.708067 
" style="fill:none;stroke:#ff7f0e;stroke-linecap:square;stroke-width:1.5;"/>
   </g>
   <g id="line2d_18">
    <path clip-path="url(#p5ed06da758)" d="M 73.832727 295.488 
L 120.211948 293.272137 
L 166.591169 275.430701 
L 212.97039 268.821517 
L 259.34961 242.554862 
L 305.728831 218.827089 
L 352.108052 161.34838 
" style="fill:none;stroke:#2ca02c;stroke-linecap:square;stroke-width:1.5;"/>
   </g>
   <g id="line2d_19">
    <path clip-path="url(#p5ed06da758)" d="M 73.832727 272.169658 
L 120.211948 273.919854 
L 166.591169 263.103204 
L 212.97039 264.438483 
L 259.34961 251.977939 
M 352.108052 240.081819 
L 398.487273 223.628469 
" style="fill:none;stroke:#d62728;stroke-linecap:square;stroke-width:1.5;"/>
   </g>
   <g id="line2d_20">
    <path clip-path="url(#p5ed06da758)" d="M 120.211948 53.568 
L 166.591169 122.047156 
L 212.97039 143.58787 
L 259.34961 157.974864 
L 305.728831 162.201532 
L 352.108052 161.427249 
" style="fill:none;stroke:#9467bd;stroke-linecap:square;stroke-width:1.5;"/>
   </g>
   <g id="patch_3">
    <path d="M 57.6 307.584 
L 57.6 41.472 
" style="fill:none;stroke:#000000;stroke-linecap:square;stroke-linejoin:miter;stroke-width:0.8;"/>
   </g>
   <g id="patch_4">
    <path d="M 414.72 307.584 
L 414.72 41.472 
" style="fill:none;stroke:#000000;stroke-linecap:square;stroke-linejoin:miter;stroke-width:0.8;"/>
   </g>
   <g id="patch_5">
    <path d="M 57.6 307.584 
L 414.72 307.584 
" style="fill:none;stroke:#000000;stroke-linecap:square;stroke-linejoin:miter;stroke-width:0.8;"/>
   </g>
   <g id="patch_6">
    <path d="M 57.6 41.472 
L 414.72 41.472 
" style="fill:none;stroke:#000000;stroke-linecap:square;stroke-linejoin:miter;stroke-width:0.8;"/>
   </g>
   <g id="text_18">
    <text style="font-family:DejaVu Sans;font-size:12px;font-style:normal;font-weight:normal;text-anchor:middle;" transform="rotate(-0, 236.16, 35.472)" x="236.16" y="35.472">Avg. Bits Consumed</text>
   </g>
   <g id="legend_1">
    <g id="patch_7">
     <path d="M 233.6325 122.862625 
L 407.72 122.862625 
Q 409.72 122.862625 409.72 120.862625 
L 409.72 48.472 
Q 409.72 46.472 407.72 46.472 
L 233.6325 46.472 
Q 231.6325 46.472 231.6325 48.472 
L 231.6325 120.862625 
Q 231.6325 122.862625 233.6325 122.862625 
z
" style="fill:#ffffff;opacity:0.8;stroke:#cccccc;stroke-linejoin:miter;"/>
    </g>
    <g id="line2d_21">
     <path d="M 235.6325 54.570438 
L 255.6325 54.570438 
" style="fill:none;stroke:#1f77b4;stroke-linecap:square;stroke-width:1.5;"/>
    </g>
    <g id="line2d_22"/>
    <g id="text_19">
     <text style="font-family:DejaVu Sans;font-size:10px;font-style:normal;font-weight:normal;text-anchor:start;" transform="rotate(-0, 263.6325, 58.070438)" x="263.6325" y="58.070438">2014 Lin. x*8.0</text>
    </g>
    <g id="line2d_23">
     <path d="M 235.6325 69.248563 
L 255.6325 69.248563 
" style="fill:none;stroke:#ff7f0e;stroke-linecap:square;stroke-width:1.5;"/>
    </g>
    <g id="line2d_24"/>
    <g id="text_20">
     <text style="font-family:DejaVu Sans;font-size:10px;font-style:normal;font-weight:normal;text-anchor:start;" transform="rotate(-0, 263.6325, 72.748563)" x="263.6325" y="72.748563">2016 Lin. x*8.0</text>
    </g>
    <g id="line2d_25">
     <path d="M 235.6325 83.926688 
L 255.6325 83.926688 
" style="fill:none;stroke:#2ca02c;stroke-linecap:square;stroke-width:1.5;"/>
    </g>
    <g id="line2d_26"/>
    <g id="text_21">
     <text style="font-family:DejaVu Sans;font-size:10px;font-style:normal;font-weight:normal;text-anchor:start;" transform="rotate(-0, 263.6325, 87.426688)" x="263.6325" y="87.426688">Low-Mean Lin. x*8.0</text>
    </g>
    <g id="line2d_27">
     <path d="M 235.6325 98.604813 
L 255.6325 98.604813 
" style="fill:none;stroke:#d62728;stroke-linecap:square;stroke-width:1.5;"/>
    </g>
    <g id="line2d_28"/>
    <g id="text_22">
     <text style="font-family:DejaVu Sans;font-size:10px;font-style:normal;font-weight:normal;text-anchor:start;" transform="rotate(-0, 263.6325, 102.104813)" x="263.6325" y="102.104813">2019x*8.0</text>
    </g>
    <g id="line2d_29">
     <path d="M 235.6325 113.282938 
L 255.6325 113.282938 
" style="fill:none;stroke:#9467bd;stroke-linecap:square;stroke-width:1.5;"/>
    </g>
    <g id="line2d_30"/>
    <g id="text_23">
     <text style="font-family:DejaVu Sans;font-size:10px;font-style:normal;font-weight:normal;text-anchor:start;" transform="rotate(-0, 263.6325, 116.782938)" x="263.6325" y="116.782938">Low-Mean M=0.49999 x*8.0</text>
    </g>
   </g>
  </g>
 </g>
 <defs>
  <clipPath id="p5ed06da758">
   <rect height="266.112" width="357.12" x="57.6" y="41.472"/>
  </clipPath>
 </defs>
</svg>

<svg height="460.8" viewBox="0 0 460.8 345.6" width="614.4" xmlns="http://www.w3.org/2000/svg" xmlns:xlink="http://www.w3.org/1999/xlink"><defs><style>*{stroke-linecap:butt;stroke-linejoin:round}</style></defs><g id="figure_1"><path d="M0 345.6h460.8V0H0z" fill="#fff" id="patch_1"/><g id="axes_1"><path d="M57.6 307.584h357.12V41.472H57.6z" fill="#fff" id="patch_2"/><g id="matplotlib.axis_1"><g id="xtick_1"><g id="line2d_1"><defs><path d="M0 0v3.5" id="mb08e518b82" stroke="#000" stroke-width=".8"/></defs><use x="73.373" xlink:href="#mb08e518b82" y="307.584" stroke="#000" stroke-width=".8"/></g><text x="73.373" y="322.182" font-family="DejaVu Sans" font-size="10" font-weight="400" text-anchor="middle" id="text_1">0.00</text></g><g id="xtick_2"><use x="119.298" xlink:href="#mb08e518b82" y="307.584" stroke="#000" stroke-width=".8" id="line2d_2"/><text x="119.298" y="322.182" font-family="DejaVu Sans" font-size="10" font-weight="400" text-anchor="middle" id="text_2">0.01</text></g><g id="xtick_3"><use x="165.223" xlink:href="#mb08e518b82" y="307.584" stroke="#000" stroke-width=".8" id="line2d_3"/><text x="165.223" y="322.182" font-family="DejaVu Sans" font-size="10" font-weight="400" text-anchor="middle" id="text_3">0.02</text></g><g id="xtick_4"><use x="211.147" xlink:href="#mb08e518b82" y="307.584" stroke="#000" stroke-width=".8" id="line2d_4"/><text x="211.147" y="322.182" font-family="DejaVu Sans" font-size="10" font-weight="400" text-anchor="middle" id="text_4">0.03</text></g><g id="xtick_5"><use x="257.072" xlink:href="#mb08e518b82" y="307.584" stroke="#000" stroke-width=".8" id="line2d_5"/><text x="257.072" y="322.182" font-family="DejaVu Sans" font-size="10" font-weight="400" text-anchor="middle" id="text_5">0.04</text></g><g id="xtick_6"><use x="302.997" xlink:href="#mb08e518b82" y="307.584" stroke="#000" stroke-width=".8" id="line2d_6"/><text x="302.997" y="322.182" font-family="DejaVu Sans" font-size="10" font-weight="400" text-anchor="middle" id="text_6">0.05</text></g><g id="xtick_7"><use x="348.921" xlink:href="#mb08e518b82" y="307.584" stroke="#000" stroke-width=".8" id="line2d_7"/><text x="348.921" y="322.182" font-family="DejaVu Sans" font-size="10" font-weight="400" text-anchor="middle" id="text_7">0.06</text></g><g id="xtick_8"><use x="394.846" xlink:href="#mb08e518b82" y="307.584" stroke="#000" stroke-width=".8" id="line2d_8"/><text x="394.846" y="322.182" font-family="DejaVu Sans" font-size="10" font-weight="400" text-anchor="middle" id="text_8">0.07</text></g><text x="236.16" y="335.861" font-family="DejaVu Sans" font-size="10" font-weight="400" text-anchor="middle" id="text_9">Probability</text></g><g id="matplotlib.axis_2"><g id="ytick_1"><g id="line2d_9"><defs><path d="M0 0h-3.5" id="mfb254343be" stroke="#000" stroke-width=".8"/></defs><use x="57.6" xlink:href="#mfb254343be" y="273.423" stroke="#000" stroke-width=".8"/></g><text x="50.6" y="277.222" font-family="DejaVu Sans" font-size="10" font-weight="400" text-anchor="end" id="text_10">100</text></g><g id="ytick_2"><use x="57.6" xlink:href="#mfb254343be" y="239.132" stroke="#000" stroke-width=".8" id="line2d_10"/><text x="50.6" y="242.931" font-family="DejaVu Sans" font-size="10" font-weight="400" text-anchor="end" id="text_11">200</text></g><g id="ytick_3"><use x="57.6" xlink:href="#mfb254343be" y="204.841" stroke="#000" stroke-width=".8" id="line2d_11"/><text x="50.6" y="208.641" font-family="DejaVu Sans" font-size="10" font-weight="400" text-anchor="end" id="text_12">300</text></g><g id="ytick_4"><use x="57.6" xlink:href="#mfb254343be" y="170.551" stroke="#000" stroke-width=".8" id="line2d_12"/><text x="50.6" y="174.35" font-family="DejaVu Sans" font-size="10" font-weight="400" text-anchor="end" id="text_13">400</text></g><g id="ytick_5"><use x="57.6" xlink:href="#mfb254343be" y="136.26" stroke="#000" stroke-width=".8" id="line2d_13"/><text x="50.6" y="140.059" font-family="DejaVu Sans" font-size="10" font-weight="400" text-anchor="end" id="text_14">500</text></g><g id="ytick_6"><use x="57.6" xlink:href="#mfb254343be" y="101.969" stroke="#000" stroke-width=".8" id="line2d_14"/><text x="50.6" y="105.769" font-family="DejaVu Sans" font-size="10" font-weight="400" text-anchor="end" id="text_15">600</text></g><g id="ytick_7"><use x="57.6" xlink:href="#mfb254343be" y="67.679" stroke="#000" stroke-width=".8" id="line2d_15"/><text x="50.6" y="71.478" font-family="DejaVu Sans" font-size="10" font-weight="400" text-anchor="end" id="text_16">700</text></g><text transform="rotate(-90 25.433 174.528)" x="25.433" y="174.528" font-family="DejaVu Sans" font-size="10" font-weight="400" text-anchor="middle" id="text_17">Average Bits Consumed Per Call</text></g><path clip-path="url(#p5ed06da758)" d="M73.833 242.55l46.379-5.295 46.38-.402 46.378-11.718 46.38 12.199 46.379-14.06" fill="none" stroke="#1f77b4" stroke-linecap="square" stroke-width="1.5" id="line2d_16"/><path clip-path="url(#p5ed06da758)" d="M73.833 237.86l46.379-2.155 46.38-10.159 46.378.872 46.38-8.435 46.379-14.993 46.38-4.282" fill="none" stroke="#ff7f0e" stroke-linecap="square" stroke-width="1.5" id="line2d_17"/><path clip-path="url(#p5ed06da758)" d="M73.833 295.488l46.379-2.216 46.38-17.841 46.378-6.61 46.38-26.266 46.379-23.728 46.38-57.479" fill="none" stroke="#2ca02c" stroke-linecap="square" stroke-width="1.5" id="line2d_18"/><path clip-path="url(#p5ed06da758)" d="M73.833 272.17l46.379 1.75 46.38-10.817 46.378 1.335 46.38-12.46m92.758-11.896l46.38-16.454" fill="none" stroke="#d62728" stroke-linecap="square" stroke-width="1.5" id="line2d_19"/><path clip-path="url(#p5ed06da758)" d="M120.212 53.568l46.38 68.48 46.378 21.54 46.38 14.387 46.379 4.227 46.38-.775" fill="none" stroke="#9467bd" stroke-linecap="square" stroke-width="1.5" id="line2d_20"/><path d="M57.6 307.584V41.472" fill="none" stroke="#000" stroke-linecap="square" stroke-width=".8" id="patch_3"/><path d="M414.72 307.584V41.472" fill="none" stroke="#000" stroke-linecap="square" stroke-width=".8" id="patch_4"/><path d="M57.6 307.584h357.12" fill="none" stroke="#000" stroke-linecap="square" stroke-width=".8" id="patch_5"/><path d="M57.6 41.472h357.12" fill="none" stroke="#000" stroke-linecap="square" stroke-width=".8" id="patch_6"/><text x="236.16" y="35.472" font-family="DejaVu Sans" font-size="12" font-weight="400" text-anchor="middle" id="text_18">Avg. Bits Consumed</text><g id="legend_1"><path d="M233.632 122.863H407.72q2 0 2-2V48.472q0-2-2-2H233.632q-2 0-2 2v72.39q0 2 2 2z" fill="#fff" opacity=".8" stroke="#ccc" id="patch_7"/><path d="M235.632 54.57h20" fill="none" stroke="#1f77b4" stroke-linecap="square" stroke-width="1.5" id="line2d_21"/><text x="263.632" y="58.07" font-family="DejaVu Sans" font-size="10" font-weight="400" id="text_19">2014 Lin. x*8.0</text><path d="M235.632 69.249h20" fill="none" stroke="#ff7f0e" stroke-linecap="square" stroke-width="1.5" id="line2d_23"/><text x="263.632" y="72.749" font-family="DejaVu Sans" font-size="10" font-weight="400" id="text_20">2016 Lin. x*8.0</text><path d="M235.632 83.927h20" fill="none" stroke="#2ca02c" stroke-linecap="square" stroke-width="1.5" id="line2d_25"/><text x="263.632" y="87.427" font-family="DejaVu Sans" font-size="10" font-weight="400" id="text_21">Low-Mean Lin. x*8.0</text><path d="M235.632 98.605h20" fill="none" stroke="#d62728" stroke-linecap="square" stroke-width="1.5" id="line2d_27"/><text x="263.632" y="102.105" font-family="DejaVu Sans" font-size="10" font-weight="400" id="text_22">2019x*8.0</text><path d="M235.632 113.283h20" fill="none" stroke="#9467bd" stroke-linecap="square" stroke-width="1.5" id="line2d_29"/><text x="263.632" y="116.783" font-family="DejaVu Sans" font-size="10" font-weight="400" id="text_23">Low-Mean M=0.49999 x*8.0</text></g></g></g><defs><clipPath id="p5ed06da758"><path d="M57.6 41.472h357.12v266.112H57.6z"/></clipPath></defs></svg>
